logos-light/sport1 hd.svg

<?xml version="1.0" encoding="UTF-8" standalone="no"?>
<svg
   xmlns:dc="http://purl.org/dc/elements/1.1/"
   xmlns:cc="http://creativecommons.org/ns#"
   xmlns:rdf="http://www.w3.org/1999/02/22-rdf-syntax-ns#"
   xmlns:svg="http://www.w3.org/2000/svg"
   xmlns="http://www.w3.org/2000/svg"
   xmlns:sodipodi="http://sodipodi.sourceforge.net/DTD/sodipodi-0.dtd"
   xmlns:inkscape="http://www.inkscape.org/namespaces/inkscape"
   width="611pt"
   height="112pt"
   viewBox="0 0 611 112"
   version="1.1"
   id="svg2"
   inkscape:version="0.91pre2 r13516"
   sodipodi:docname="sport1 hd.svg">
  <metadata
     id="metadata28">
    <rdf:RDF>
      <cc:Work
         rdf:about="">
        <dc:format>image/svg+xml</dc:format>
        <dc:type
           rdf:resource="http://purl.org/dc/dcmitype/StillImage" />
      </cc:Work>
    </rdf:RDF>
  </metadata>
  <defs
     id="defs26" />
  <sodipodi:namedview
     pagecolor="#ffffff"
     bordercolor="#666666"
     borderopacity="1"
     objecttolerance="10"
     gridtolerance="10"
     guidetolerance="10"
     inkscape:pageopacity="0"
     inkscape:pageshadow="2"
     inkscape:window-width="1920"
     inkscape:window-height="1017"
     id="namedview24"
     showgrid="false"
     inkscape:zoom="0.45826514"
     inkscape:cx="381.875"
     inkscape:cy="70"
     inkscape:window-x="-8"
     inkscape:window-y="-8"
     inkscape:window-maximized="1"
     inkscape:current-layer="svg2" />
  <g
     id="#ffffffff" />
  <path
     style="opacity:1;fill:#908f91;fill-opacity:1"
     inkscape:connector-curvature="0"
     id="path6"
     d="m 346.96,1.01 c 5.69,-0.74 11.51,-1.24 17.17,-0.03 -1.77,7.43 -3.9,14.77 -5.86,22.15 8.93,0.37 17.88,0.12 26.82,0.13 -1.08,5.38 -2.73,10.63 -4.11,15.94 -8.98,0.19 -17.96,0.03 -26.94,0.07 -4.36,15.55 -8.43,31.19 -12.59,46.8 -0.52,1.25 -0.34,2.96 -1.47,3.86 -5.67,0.19 -11.35,0.02 -17.02,0.05 8.16,-29.61 15.82,-59.36 24,-88.97 z" />
  <path
     style="opacity:1;fill:#908f91;fill-opacity:1"
     inkscape:connector-curvature="0"
     id="path8"
     d="m 12.34,37.36 c 4.09,-8.93 13.89,-14.52 23.62,-14.12 19.54,0.17 39.1,-0.25 58.63,0.24 -1.41,5.29 -2.71,10.61 -4.33,15.84 -19.11,-0.05 -38.22,-0.01 -57.32,0.04 -3.55,-0.26 -6.74,3.13 -6.38,6.6 0.3,2.14 2.35,3.4 4.4,3.27 12.04,0.11 24.08,-0.03 36.11,0.09 5.11,0 10.43,1.67 13.84,5.63 4.4,4.8 5.05,12 3.16,18.02 -1.77,6.88 -6.72,12.9 -13.25,15.75 -4.01,1.74 -8.42,2.41 -12.77,2.32 -19.03,-0.05 -38.07,0.08 -57.1,0.01 1.41,-5.37 2.96,-10.7 4.24,-16.11 18.97,-0.22 37.94,0.01 56.9,-0.06 3.91,0.4 7.71,-4.12 5.79,-7.82 C 67.28,65.55 65.6,64.79 64.04,64.87 51.69,64.75 39.33,64.96 26.98,64.79 21.12,64.7 15.27,61.76 12.21,56.66 8.62,50.81 9.46,43.32 12.34,37.36 Z" />
  <path
     style="opacity:1;fill:#908f91;fill-opacity:1"
     inkscape:connector-curvature="0"
     id="path10"
     d="m 104.68,23.53 c 10.4,-0.6 20.87,-0.06 31.3,-0.24 7.88,0.24 15.91,-0.72 23.66,1.15 5.94,1.43 11.38,5.24 14.22,10.72 3.49,6.76 3.47,14.79 1.56,22.02 -1.97,7.27 -3.4,15.04 -8.22,21.08 -5.46,7.03 -14.05,12.51 -23.23,11.77 -13.99,-0.07 -27.98,-0.02 -41.96,-0.04 0.83,7.6 -1.82,14.81 -3.78,22.01 l -17.46,0 C 88.92,82.56 96.51,52.95 104.68,23.53 m 12.8,16.74 c -2.97,11.58 -6.5,23.05 -9.04,34.73 10.86,-0.22 21.73,-0.01 32.59,-0.1 4.9,0 9.71,-2.33 12.71,-6.2 3.19,-3.87 3.78,-9.02 5.19,-13.67 1.21,-3.94 1.87,-8.66 -0.66,-12.23 -2.08,-2.93 -5.93,-3.53 -9.27,-3.52 -9.32,0 -18.65,0.04 -27.97,-0.01 -1.11,0.25 -3.2,-0.59 -3.55,1 z" />
  <path
     style="opacity:1;fill:#908f91;fill-opacity:1"
     inkscape:connector-curvature="0"
     id="path12"
     d="m 214.25,23.45 c 9.57,-0.31 19.15,-0.12 28.73,-0.1 7.93,0.13 16.53,2.8 21.17,9.66 5.56,8.23 4.73,18.94 1.84,28 -1.74,7.8 -4.65,15.7 -10.71,21.22 -4.25,3.8 -9.47,6.88 -15.16,7.73 -12.37,0.12 -24.74,-0.04 -37.11,0.06 -8.57,0.7 -17.09,-4.93 -20.18,-12.89 -2.53,-6.4 -2.3,-13.56 -0.5,-20.11 1.71,-5.96 2.7,-12.27 6.04,-17.61 5.34,-9.11 15.33,-15.28 25.88,-15.96 m 0.99,15.96 c -7.06,0.63 -13.03,6.27 -14.62,13.08 -1.28,5.39 -3.73,10.87 -2.38,16.5 1.13,4.18 5.72,6.11 9.72,5.92 8.38,0 16.75,0.04 25.13,-0.02 7.39,-0.09 13.86,-5.86 15.56,-12.93 1.2,-5.76 4.43,-11.79 2.06,-17.67 -1.51,-3.87 -5.97,-5.07 -9.74,-5 -8.58,0.08 -17.16,-0.17 -25.73,0.12 z" />
  <path
     style="opacity:1;fill:#908f91;fill-opacity:1"
     inkscape:connector-curvature="0"
     id="path14"
     d="m 287.47,30.48 c 5.26,-4.86 12.49,-6.86 19.52,-7.08 8.97,-0.23 17.95,-0.01 26.92,-0.11 -1.25,5.33 -2.8,10.58 -4.07,15.9 -7.49,0.3 -15,-0.18 -22.48,0.24 -7.28,0.63 -12.61,6.92 -14.41,13.63 -3.44,12.27 -6.5,24.64 -9.92,36.92 -5.75,0.04 -11.5,0.02 -17.25,0.01 3.24,-12.39 6.61,-24.75 9.94,-37.11 2.32,-8.12 5.41,-16.51 11.75,-22.4 z" />
  <g
     id="#f7a511ff">
    <path
       fill="#f7a511"
       opacity="1.00"
       d=" M 423.41 1.15 C 429.20 0.20 435.21 0.25 441.04 0.99 C 433.09 30.67 424.92 60.28 416.92 89.95 C 409.26 90.06 401.60 89.97 393.94 89.99 C 398.46 73.20 402.91 56.39 407.50 39.62 C 401.19 38.79 394.78 39.49 388.43 39.29 C 389.23 33.87 390.91 28.62 392.28 23.32 C 405.97 23.40 419.11 14.18 423.41 1.15 Z"
       id="path17" />
  </g>
  <g
     id="#b2b5baff">
    <path
       fill="#b2b5ba"
       opacity="1.00"
       d=" M 453.08 24.09 C 458.96 24.02 464.84 23.86 470.72 24.13 C 468.50 32.38 466.23 40.62 464.02 48.87 C 477.54 49.01 491.07 49.02 504.59 48.81 C 506.76 40.58 508.85 32.33 511.11 24.12 C 517.00 24.00 522.91 23.83 528.80 24.18 C 525.92 35.48 522.71 46.71 519.76 57.99 C 516.63 68.58 514.32 79.40 511.04 89.93 C 505.25 90.04 499.47 89.99 493.68 89.99 C 495.37 81.64 498.18 73.57 500.02 65.26 C 486.48 65.23 472.95 65.06 459.42 65.28 C 457.57 73.58 455.15 81.75 452.96 89.97 C 447.21 90.05 441.46 89.97 435.71 90.01 C 436.88 83.46 439.06 77.15 440.67 70.70 C 444.81 55.16 449.02 39.65 453.08 24.09 Z"
       id="path20" />
    <path
       fill="#b2b5ba"
       opacity="1.00"
       d=" M 537.28 24.17 C 554.85 23.75 572.44 24.10 590.01 24.02 C 598.42 23.59 605.85 29.94 608.67 37.53 C 610.79 42.90 610.11 48.83 609.63 54.43 C 607.60 62.01 606.61 70.23 601.83 76.73 C 599.59 80.44 596.52 83.65 592.73 85.80 C 589.10 87.84 585.30 90.18 580.98 89.99 C 560.62 89.98 540.26 90.04 519.90 89.97 C 525.54 68.01 531.63 46.14 537.28 24.17 M 550.54 41.57 C 547.40 52.44 544.69 63.44 541.60 74.32 C 543.05 74.66 544.53 74.83 546.03 74.78 C 555.01 74.65 563.99 74.73 572.98 74.70 C 578.36 74.93 583.86 72.42 587.10 68.09 C 589.74 64.55 590.24 60.03 591.56 55.93 C 592.87 51.77 593.64 46.79 591.10 42.94 C 588.78 39.87 584.54 39.84 581.05 39.75 C 571.70 39.74 562.35 39.64 553.01 39.64 C 551.58 39.52 550.76 40.17 550.54 41.57 Z"
       id="path22" />
  </g>
</svg>

<?xml version="1.0" encoding="UTF-8" ?>
<!DOCTYPE svg PUBLIC "-//W3C//DTD SVG 1.1//EN" "http://www.w3.org/Graphics/SVG/1.1/DTD/svg11.dtd">
<svg width="611pt" height="112pt" viewBox="0 0 611 112" version="1.1" xmlns="http://www.w3.org/2000/svg">
<g id="#ffffffff">
</g>
<g id="#434750ff">
<path fill="#434750" opacity="1.00" d=" M 346.96 1.01 C 352.65 0.27 358.47 -0.23 364.13 0.98 C 362.36 8.41 360.23 15.75 358.27 23.13 C 367.20 23.50 376.15 23.25 385.09 23.26 C 384.01 28.64 382.36 33.89 380.98 39.20 C 372.00 39.39 363.02 39.23 354.04 39.27 C 349.68 54.82 345.61 70.46 341.45 86.07 C 340.93 87.32 341.11 89.03 339.98 89.93 C 334.31 90.12 328.63 89.95 322.96 89.98 C 331.12 60.37 338.78 30.62 346.96 1.01 Z" />
<path fill="#434750" opacity="1.00" d=" M 12.34 37.36 C 16.43 28.43 26.23 22.84 35.96 23.24 C 55.50 23.41 75.06 22.99 94.59 23.48 C 93.18 28.77 91.88 34.09 90.26 39.32 C 71.15 39.27 52.04 39.31 32.94 39.36 C 29.39 39.10 26.20 42.49 26.56 45.96 C 26.86 48.10 28.91 49.36 30.96 49.23 C 43.00 49.34 55.04 49.20 67.07 49.32 C 72.18 49.32 77.50 50.99 80.91 54.95 C 85.31 59.75 85.96 66.95 84.07 72.97 C 82.30 79.85 77.35 85.87 70.82 88.72 C 66.81 90.46 62.40 91.13 58.05 91.04 C 39.02 90.99 19.98 91.12 0.95 91.05 C 2.36 85.68 3.91 80.35 5.19 74.94 C 24.16 74.72 43.13 74.95 62.09 74.88 C 66.00 75.28 69.80 70.76 67.88 67.06 C 67.28 65.55 65.60 64.79 64.04 64.87 C 51.69 64.75 39.33 64.96 26.98 64.79 C 21.12 64.70 15.27 61.76 12.21 56.66 C 8.62 50.81 9.46 43.32 12.34 37.36 Z" />
<path fill="#434750" opacity="1.00" d=" M 104.68 23.53 C 115.08 22.93 125.55 23.47 135.98 23.29 C 143.86 23.53 151.89 22.57 159.64 24.44 C 165.58 25.87 171.02 29.68 173.86 35.16 C 177.35 41.92 177.33 49.95 175.42 57.18 C 173.45 64.45 172.02 72.22 167.20 78.26 C 161.74 85.29 153.15 90.77 143.97 90.03 C 129.98 89.96 115.99 90.01 102.01 89.99 C 102.84 97.59 100.19 104.80 98.23 112.00 L 80.77 112.00 C 88.92 82.56 96.51 52.95 104.68 23.53 M 117.48 40.27 C 114.51 51.85 110.98 63.32 108.44 75.00 C 119.30 74.78 130.17 74.99 141.03 74.90 C 145.93 74.90 150.74 72.57 153.74 68.70 C 156.93 64.83 157.52 59.68 158.93 55.03 C 160.14 51.09 160.80 46.37 158.27 42.80 C 156.19 39.87 152.34 39.27 149.00 39.28 C 139.68 39.28 130.35 39.32 121.03 39.27 C 119.92 39.52 117.83 38.68 117.48 40.27 Z" />
<path fill="#434750" opacity="1.00" d=" M 214.25 23.45 C 223.82 23.14 233.40 23.33 242.98 23.35 C 250.91 23.48 259.51 26.15 264.15 33.01 C 269.71 41.24 268.88 51.95 265.99 61.01 C 264.25 68.81 261.34 76.71 255.28 82.23 C 251.03 86.03 245.81 89.11 240.12 89.96 C 227.75 90.08 215.38 89.92 203.01 90.02 C 194.44 90.72 185.92 85.09 182.83 77.13 C 180.30 70.73 180.53 63.57 182.33 57.02 C 184.04 51.06 185.03 44.75 188.37 39.41 C 193.71 30.30 203.70 24.13 214.25 23.45 M 215.24 39.41 C 208.18 40.04 202.21 45.68 200.62 52.49 C 199.34 57.88 196.89 63.36 198.24 68.99 C 199.37 73.17 203.96 75.10 207.96 74.91 C 216.34 74.91 224.71 74.95 233.09 74.89 C 240.48 74.80 246.95 69.03 248.65 61.96 C 249.85 56.20 253.08 50.17 250.71 44.29 C 249.20 40.42 244.74 39.22 240.97 39.29 C 232.39 39.37 223.81 39.12 215.24 39.41 Z" />
<path fill="#434750" opacity="1.00" d=" M 287.47 30.48 C 292.73 25.62 299.96 23.62 306.99 23.40 C 315.96 23.17 324.94 23.39 333.91 23.29 C 332.66 28.62 331.11 33.87 329.84 39.19 C 322.35 39.49 314.84 39.01 307.36 39.43 C 300.08 40.06 294.75 46.35 292.95 53.06 C 289.51 65.33 286.45 77.70 283.03 89.98 C 277.28 90.02 271.53 90.00 265.78 89.99 C 269.02 77.60 272.39 65.24 275.72 52.88 C 278.04 44.76 281.13 36.37 287.47 30.48 Z" />
</g>
<g id="#f7a511ff">
<path fill="#f7a511" opacity="1.00" d=" M 423.41 1.15 C 429.20 0.20 435.21 0.25 441.04 0.99 C 433.09 30.67 424.92 60.28 416.92 89.95 C 409.26 90.06 401.60 89.97 393.94 89.99 C 398.46 73.20 402.91 56.39 407.50 39.62 C 401.19 38.79 394.78 39.49 388.43 39.29 C 389.23 33.87 390.91 28.62 392.28 23.32 C 405.97 23.40 419.11 14.18 423.41 1.15 Z" />
</g>
<g id="#b2b5baff">
<path fill="#b2b5ba" opacity="1.00" d=" M 453.08 24.09 C 458.96 24.02 464.84 23.86 470.72 24.13 C 468.50 32.38 466.23 40.62 464.02 48.87 C 477.54 49.01 491.07 49.02 504.59 48.81 C 506.76 40.58 508.85 32.33 511.11 24.12 C 517.00 24.00 522.91 23.83 528.80 24.18 C 525.92 35.48 522.71 46.71 519.76 57.99 C 516.63 68.58 514.32 79.40 511.04 89.93 C 505.25 90.04 499.47 89.99 493.68 89.99 C 495.37 81.64 498.18 73.57 500.02 65.26 C 486.48 65.23 472.95 65.06 459.42 65.28 C 457.57 73.58 455.15 81.75 452.96 89.97 C 447.21 90.05 441.46 89.97 435.71 90.01 C 436.88 83.46 439.06 77.15 440.67 70.70 C 444.81 55.16 449.02 39.65 453.08 24.09 Z" />
<path fill="#b2b5ba" opacity="1.00" d=" M 537.28 24.17 C 554.85 23.75 572.44 24.10 590.01 24.02 C 598.42 23.59 605.85 29.94 608.67 37.53 C 610.79 42.90 610.11 48.83 609.63 54.43 C 607.60 62.01 606.61 70.23 601.83 76.73 C 599.59 80.44 596.52 83.65 592.73 85.80 C 589.10 87.84 585.30 90.18 580.98 89.99 C 560.62 89.98 540.26 90.04 519.90 89.97 C 525.54 68.01 531.63 46.14 537.28 24.17 M 550.54 41.57 C 547.40 52.44 544.69 63.44 541.60 74.32 C 543.05 74.66 544.53 74.83 546.03 74.78 C 555.01 74.65 563.99 74.73 572.98 74.70 C 578.36 74.93 583.86 72.42 587.10 68.09 C 589.74 64.55 590.24 60.03 591.56 55.93 C 592.87 51.77 593.64 46.79 591.10 42.94 C 588.78 39.87 584.54 39.84 581.05 39.75 C 571.70 39.74 562.35 39.64 553.01 39.64 C 551.58 39.52 550.76 40.17 550.54 41.57 Z" />
</g>
</svg>
